!!!OTL: 114. Freylekhs
!!!Genre:	Freylekhs
!!!Mode:	Altered Dorian
!!!Listening/dance:	dance
!!!:	*g:; *G:; *g:
!!!One_Mode:	no
**kern
*thru
*part1
*staff1
*clefG2
*k[b-e-]
!!!Begin-Modulation
*G:
=40:|!|:
*>C
(>4.dd
8cc#X)
=17
(>4.dd
8cc#X)
=18
(>8.ddmL
16cc#XJk)
(>8.ddmL
16cc#XJk)
=19
4.dd
8dd
=20
16cc#XLL
16dd
16ee
16ffJJ
16eeLL
16dd
16cc#
16eeJJ
=21
8ddL
16ddL
16ddJJ
16ddLL
16dd
16dd
16ddJJ
=22
16cc#XLL
16dd
16ee
16ffJJ
16eeLL
16dd
16cc#
16eeJJ
=23
4.dd
8dd
=24
(>8.ggL
16ffJk)
(>16ffLL
16ee)
(>16ee
16ddJJ)
=25
(>8.ggL
16ffJk)
(>16ffLL
16ee)
(>16ee
16ddJJ)
=26
16cc#XLL
16dd
16ee
16ffJJ
16eeLL
16dd
16cc#
16eeJJ
=27
4.dd
8b-
=28
4dd
(>8qcc#X/
8ddL)
(>8qcc#/
8ddJ)
=29
4.cc#X
24b-LL
24a
24b-JJ
=30
4dd
(>8qcc#X/
8ddL)
(>8qcc#/
8ddJ)
=31
8cc#XL
8b-J
8aL
8gJ
=32
4dd
(>8qcc#X/
8ddL)
(>8qcc#/
8ddJ)
=33
4.cc#X
24b-LL
24a
24b-JJ
=34
4dd
(>8qcc#X/
8ddL)
(>8qee/
8ddJ)
=35
(>8cc#XL
8b-J)
8aL
8gJ
=36
4.g
(<16aLL
16b-JJ)
=37
4.g
(<16aLL
16b-JJ)
=38
8gL
(<16aL
16b-JJ)
(8gL
<16aL
16b-JJ)
=39
4.g
8d
!!!Begin-Modulation
*G:
=40:|!|:
*>D
*k[f#]
!LO:TX:a:i:t=G-major
4.bn
16ddLL
16ccJJ
=41
4.b
16ddLL
16ccJJ
=42
8bL
16ddL
16ccJJ
8bL
16ddL
16ccJJ
=43
4.b
8dd
=44
(>16ddLL
16cc)
(>16cc
16bJJ)
(>8.bL
16ddJk)
=45
16ddLL
16cc
16cc
16bJJ
8.bL
16ddJk
=46
(>16ddLL
16cc)
(>16cc
16bJJ)
(<16bLL
16a)
(<16a
16gJJ)
*>D1
=47
16aLL
16bJ
[8gJ
16gLL]
16d
16g
16aJJ
*>D
*k[f#]
!LO:TX:a:i:t=G-major
4.bn
16ddLL
16ccJJ
=41
4.b
16ddLL
16ccJJ
=42
8bL
16ddL
16ccJJ
8bL
16ddL
16ccJJ
=43
4.b
8dd
=44
(>16ddLL
16cc)
(>16cc
16bJJ)
(>8.bL
16ddJk)
=45
16ddLL
16cc
16cc
16bJJ
8.bL
16ddJk
=46
(>16ddLL
16cc)
(>16cc
16bJJ)
(<16bLL
16a)
(<16a
16gJJ)
*>D2
=48:|!
16aLL
16bJJ
4g
8dd
*>E
=49!|:
16ffnLL
16ee
16dd
16ccJJ
4b
=50
16aLL
16b
16cc
16aJJ
4b
=51
16ffnLL
16ee
16dd
16ccJJ
4b
=52
16aLL
16b
16cc
16aJJ
4g
!!!End-Modulation
!!!Begin-Modulation
*-
